X:1
T:Title
%%score { ( 1 3 ) | 2 }
L:1/8
M:3/4
K:Bb
V:1 treble nm="Grand Piano"
V:3 treble 
V:2 bass 
V:1
 z2 z[Q:1/4=92] [DF] [B,D][CE] | [DF]3 [Fd] [Ec][DB] | c3 A AB | c3 c [DB][EG] |[M:3/8] [DF]3 | %5
 [DF][B,D][CE] |[M:3/4] [DF]3 [Fd] [Ec][DB] | [EG]3 [EG] [GB][Ge] | d3 c BA |[M:3/8] [DB]3 | %10
[M:4/4] z2 z c- c4 | z2 z B- B4 | z2 z B- B4 | z2 z c- c4 | z2 z d- d4 | z2 z e- e4 | %16
 GAGF- F2 dd- |[M:5/8] d c2 [DB]2- | [DB]3 z2 |] %19
V:2
 z2 z [B,,B,] [B,,F,][B,,F,] | [B,,B,]3 [B,,B,] [B,,B,][B,,F,] | [F,A,E]3 [F,CE] [F,CE][F,G,E] | %3
 [F,A,E]3 [F,A,E] [B,,B,][B,,B,] |[M:3/8] [B,,B,]3 | [B,,B,][B,,F,][B,,F,] | %6
[M:3/4] [B,,B,]3 [B,,B,] [B,,B,][B,,B,] | [E,B,]3 [E,B,] [E,B,][E,B,] | %8
 [F,B,F]3 [F,A,E] [F,B,D][F,CE] |[M:3/8] [B,,B,]3 |[M:4/4] z4 [F,A,][F,A,][F,A,][F,A,] | %11
 [F,A,E][F,A,E][F,A,E][F,B,D] [E,B,][D,B,][C,B,][B,,B,] | z4[K:treble] [G,D][G,D][G,D][G,D] | %13
 [G,DG][K:bass]D,G,F, =E,[F,F][K:treble][G,F][F,F] | z4[K:bass] [B,,B,][D,B,][F,B,]B, | %15
 [B,F][D,B,][D,B,][E,B,] [E,B,][E,B,][E,B,][E,B,] | %16
 [E,B,E][=E,B,_D][E,B,D][F,B,=D]- [F,B,D]2 [F,B,F][F,B,F]- |[M:5/8] [F,B,F] [F,A,E]2 [B,,B,]2- | %18
 [B,,B,]3 z2 |] %19
V:3
 x6 | x6 | x6 | x6 |[M:3/8] x3 | x3 |[M:3/4] x6 | x6 | x6 |[M:3/8] x3 |[M:4/4] FF .d2 EEEE | %11
 FF .c2 GFED | BB .c2 GGGG | B[D^FA][DGB][=FA] [FG]ABA | AG .F2 FFFF | d[_Ac][AB]G GGGG | x8 | %17
[M:5/8] x5 | x5 |] %19

